apps/scalable/zsnes.svg

<svg xmlns="http://www.w3.org/2000/svg" style="isolation:isolate" width="256" height="256"><defs><filter id="a" width="270.648" height="254.338" x="-7.32" y="2.95" filterUnits="userSpaceOnUse"><feGaussianBlur xmlns="http://www.w3.org/2000/svg" in="SourceGraphic" stdDeviation="4.294"/><feOffset xmlns="http://www.w3.org/2000/svg" dy="4" result="pf_100_offsetBlur"/><feFlood xmlns="http://www.w3.org/2000/svg" flood-opacity=".4"/><feComposite xmlns="http://www.w3.org/2000/svg" in2="pf_100_offsetBlur" operator="in" result="pf_100_dropShadow"/><feBlend xmlns="http://www.w3.org/2000/svg" in="SourceGraphic" in2="pf_100_dropShadow"/></filter></defs><g filter="url(#a)"><linearGradient id="b" x1=".233" x2=".933" y1="-.071" y2=".995" gradientTransform="matrix(244.648 0 0 228.338 5.676 11.947)" gradientUnits="userSpaceOnUse"><stop offset="0%" stop-color="#e8e8e8"/><stop offset="100%" stop-color="#f5f5f5"/></linearGradient><path fill="url(#b)" d="M165.685 11.947c74.055 0 84.639 10.557 84.639 84.544v59.251c0 73.986-10.584 84.543-84.639 84.543h-75.37c-74.055 0-84.639-10.557-84.639-84.543V96.491c0-73.987 10.584-84.544 84.639-84.544h75.37z"/></g><path fill="#FFF" d="M5.676 126.116v29.626c0 73.986 10.584 84.543 84.639 84.543h75.37c74.055 0 84.639-10.557 84.639-84.543v-29.626H5.676z" opacity=".4"/><g opacity=".4"><linearGradient id="c" x1=".517" x2=".517" y2="1"><stop offset="0%" stop-color="#fff"/><stop offset="12.5%" stop-opacity=".098" stop-color="#fff"/><stop offset="92.5%" stop-opacity=".098"/><stop offset="100%" stop-opacity=".498"/></linearGradient><path fill="none" stroke="url(#c)" stroke-linecap="round" stroke-linejoin="round" stroke-width="4.077" d="M165.685 11.947c74.055 0 84.639 10.557 84.639 84.544v59.251c0 73.986-10.584 84.543-84.639 84.543h-75.37c-74.055 0-84.639-10.557-84.639-84.543V96.491c0-73.987 10.584-84.544 84.639-84.544h75.37z" vector-effect="non-scaling-stroke"/></g><ellipse fill="#389F3A" rx="1" ry="1" transform="matrix(39.973 0 0 20.236 67.973 140.971)" vector-effect="non-scaling-stroke"/><ellipse fill="#FFEC00" rx="1" ry="1" transform="matrix(42.207 0 0 21.478 144.449 178.216)" vector-effect="non-scaling-stroke"/><path fill="#1D4589" d="M117.944 56.306c-20.659.023-37.578 16.428-38.236 37.077a38.668 38.668 0 0 1 2.232-.079c21.151 0 38.297 17.146 38.298 38.297a41.33 41.33 0 0 1-.061 1.22c20.244-1.182 36.057-17.939 36.065-38.218a38.297 38.297 0 0 0-38.298-38.297z"/><path fill="#FF1B00" d="M191.442 95.289c-19.721.022-35.871 15.948-36.499 35.995.709-.047 1.42-.073 2.131-.078 20.19 0 36.557 16.646 36.557 37.179-.013.395-.032.79-.058 1.184 19.325-1.147 34.42-17.415 34.427-37.101 0-9.861-3.852-19.317-10.707-26.289-6.856-6.973-16.155-10.89-25.851-10.89z"/></svg>

<svg xmlns="http://www.w3.org/2000/svg" style="isolation:isolate" width="256" height="256" viewBox="0 0 256 256">
 <defs>
  <filter id="tIG7xl7BwanwzcWLnWGLMnppfgZhhB1f" width="270.648" height="254.338" x="-7.32" y="2.95" filterUnits="userSpaceOnUse">
   <feGaussianBlur xmlns="http://www.w3.org/2000/svg" in="SourceGraphic" stdDeviation="4.294"/>
   <feOffset xmlns="http://www.w3.org/2000/svg" dx="0" dy="4" result="pf_100_offsetBlur"/>
   <feFlood xmlns="http://www.w3.org/2000/svg" flood-opacity=".4"/>
   <feComposite xmlns="http://www.w3.org/2000/svg" in2="pf_100_offsetBlur" operator="in" result="pf_100_dropShadow"/>
   <feBlend xmlns="http://www.w3.org/2000/svg" in="SourceGraphic" in2="pf_100_dropShadow" mode="normal"/>
  </filter>
 </defs>
 <g filter="url(#tIG7xl7BwanwzcWLnWGLMnppfgZhhB1f)">
  <linearGradient id="_lgradient_178" x1=".233" x2=".933" y1="-.071" y2=".995" gradientTransform="matrix(244.648,0,0,228.338,5.676,11.947)" gradientUnits="userSpaceOnUse">
   <stop offset="0%" style="stop-color:rgb(232,232,232)"/>
   <stop offset="100%" style="stop-color:rgb(245,245,245)"/>
  </linearGradient>
  <path fill="url(#_lgradient_178)" d="M 165.685 11.947 C 239.74 11.947 250.324 22.504 250.324 96.491 L 250.324 155.742 C 250.324 229.728 239.74 240.285 165.685 240.285 L 90.315 240.285 C 16.26 240.285 5.676 229.728 5.676 155.742 L 5.676 96.491 C 5.676 22.504 16.26 11.947 90.315 11.947 L 165.685 11.947 Z"/>
 </g>
 <g opacity=".4">
  <path fill="#FFFFFF" d="M 5.676 126.116 L 5.676 155.742 C 5.676 229.728 16.26 240.285 90.315 240.285 L 165.685 240.285 C 239.74 240.285 250.324 229.728 250.324 155.742 L 250.324 126.116 L 5.676 126.116 Z"/>
 </g>
 <g opacity=".4">
  <linearGradient id="_lgradient_179" x1=".517" x2=".517" y1="0" y2="1">
   <stop offset="0%" style="stop-color:rgb(255,255,255)"/>
   <stop offset="12.5%" stop-opacity=".098" style="stop-color:rgb(255,255,255)"/>
   <stop offset="92.5%" stop-opacity=".098" style="stop-color:rgb(0,0,0)"/>
   <stop offset="100%" stop-opacity=".498" style="stop-color:rgb(0,0,0)"/>
  </linearGradient>
  <path fill="none" stroke="url(#_lgradient_179)" stroke-linecap="round" stroke-linejoin="round" stroke-width="4.077" d="M 165.685 11.947 C 239.74 11.947 250.324 22.504 250.324 96.491 L 250.324 155.742 C 250.324 229.728 239.74 240.285 165.685 240.285 L 90.315 240.285 C 16.26 240.285 5.676 229.728 5.676 155.742 L 5.676 96.491 C 5.676 22.504 16.26 11.947 90.315 11.947 L 165.685 11.947 Z" vector-effect="non-scaling-stroke"/>
 </g>
 <g>
  <ellipse fill="#389F3A" cx="0" cy="0" rx="1" ry="1" transform="matrix(39.973,0,0,20.236,67.973,140.971)" vector-effect="non-scaling-stroke"/>
  <ellipse fill="#FFEC00" cx="0" cy="0" rx="1" ry="1" transform="matrix(42.207,0,0,21.478,144.449,178.216)" vector-effect="non-scaling-stroke"/>
  <path fill="#1D4589" d="M 117.944 56.306 C 97.285 56.329 80.366 72.734 79.708 93.383 C 80.451 93.335 81.196 93.309 81.94 93.304 C 103.091 93.304 120.237 110.45 120.238 131.601 C 120.224 132.008 120.203 132.415 120.177 132.821 C 140.421 131.639 156.234 114.882 156.242 94.603 C 156.242 84.446 152.207 74.705 145.025 67.523 C 137.843 60.341 128.102 56.306 117.944 56.306 L 117.944 56.306 Z"/>
  <path fill="#FF1B00" d="M 191.442 95.289 C 171.721 95.311 155.571 111.237 154.943 131.284 C 155.652 131.237 156.363 131.211 157.074 131.206 C 177.264 131.206 193.631 147.852 193.631 168.385 C 193.618 168.78 193.599 169.175 193.573 169.569 C 212.898 168.422 227.993 152.154 228 132.468 C 228 122.607 224.148 113.151 217.293 106.179 C 210.437 99.206 201.138 95.289 191.442 95.289 L 191.442 95.289 Z"/>
 </g>
</svg>
